src/ui/Svg/optimized/total-reward-adresses.svg

<?xml version="1.0" standalone="no"?>
<!DOCTYPE svg PUBLIC "-//W3C//DTD SVG 1.1//EN" "http://www.w3.org/Graphics/SVG/1.1/DTD/svg11.dtd">
<svg class="icon" version="1.1" viewBox="0 0 1063 1024" fill="currentColor" aria-hidden="true">
  <path d="M90.125 183.87860589v603.50841322a145.70913455 145.70913455 0 0 0 43.35576911 103.58653821A148.79206769 148.79206769 0 0 0 238.10576911 933.875h580.17548089c39.26682725 0 76.91105732-15.44711545 104.65745225-42.90144269A145.70913455 145.70913455 0 0 0 966.32692275 787.38701911V377.22716321c0-33.75-11.78004776-66.49399045-33.36057641-92.65024046a148.30528821 148.30528821 0 0 0-85.02403903-50.88461544V189.71995224c0-26.41586545-10.61177866-51.72836545-29.49879776-70.42067358A101.18509634 101.18509634 0 0 0 747.27644268 90.125H190.75841321C165.12139411 90.125 140.4254809 99.828125 121.73317276 117.25480731a99.17307725 99.17307725 0 0 0-31.44591321 66.62379859H90.125z m698.59254775 5.84134636v41.01923006H190.75841321c-10.96875 0-21.515625-4.3161059-29.30408597-12.00721097a40.79206768 40.79206768 0 0 1 0-57.99158679c7.78846179-7.69110589 18.33533679-12.00721179 29.30408597-12.00721179H747.27644268a41.21394268 41.21394268 0 0 1 41.44110508 40.98677949z m-76.97596096 369.14062499h106.57211545c7.85336545 0 15.38221179 3.11538455 20.93149045 8.59975955a29.14182724 29.14182724 0 0 1 0 41.44110589 29.75841321 29.75841321 0 0 1-20.93149045 8.56730732h-106.57211545a29.75841321 29.75841321 0 0 1-20.93149045-8.56730732 29.14182724 29.14182724 0 0 1 0-41.44110589 29.75841321 29.75841321 0 0 1 20.93149045-8.59975954z"/>
</svg>

<svg xmlns="http://www.w3.org/2000/svg" class="icon" viewBox="0 0 1063 1024" fill="currentColor" aria-hidden="true">
  <path d="M90.125 183.879v603.508a145.71 145.71 0 0043.356 103.587 148.792 148.792 0 00104.625 42.901H818.28c39.267 0 76.911-15.447 104.658-42.901a145.71 145.71 0 0043.388-103.587v-410.16c0-33.75-11.78-66.494-33.36-92.65a148.305 148.305 0 00-85.025-50.885V189.72c0-26.416-10.611-51.728-29.498-70.42a101.185 101.185 0 00-71.168-29.175H190.758c-25.637 0-50.333 9.703-69.025 27.13a99.173 99.173 0 00-31.446 66.624h-.162zm698.593 5.841v41.02h-597.96c-10.968 0-21.515-4.317-29.304-12.008a40.792 40.792 0 010-57.992c7.789-7.69 18.336-12.007 29.304-12.007h556.518a41.214 41.214 0 0141.442 40.987zm-76.976 369.14h106.572a29.81 29.81 0 0120.931 8.6 29.142 29.142 0 010 41.441 29.758 29.758 0 01-20.931 8.568H711.742a29.758 29.758 0 01-20.932-8.568 29.142 29.142 0 010-41.44 29.758 29.758 0 0120.932-8.6z"/>
</svg>
